weblate/static/auth/email.svg

<svg width="20" height="20" version="1.1" viewBox="0 0 20 20" xmlns="http://www.w3.org/2000/svg"><path d="m18 6-8 5-8-5v-2l8 5 8-5m0-2h-16c-1.11 0-2 0.89-2 2v12a2 2 0 0 0 2 2h16a2 2 0 0 0 2-2v-12c0-1.11-0.9-2-2-2z"/></svg>

<svg xmlns="http://www.w3.org/2000/svg" xmlns:svg="http://www.w3.org/2000/svg" id="svg4" width="20" height="20" version="1.1" viewBox="0 0 20 20"><metadata id="metadata10"/><path id="path2" d="M 18,6 10,11 2,6 V 4 l 8,5 8,-5 M 18,2 H 2 C 0.89,2 0,2.89 0,4 v 12 a 2,2 0 0 0 2,2 h 16 a 2,2 0 0 0 2,-2 V 4 C 20,2.89 19.1,2 18,2 Z"/></svg>
